X: 1318
T: Kırmızı Gül Demet Demet
C: (Anonim)
O: Turkey
F: http://compmusic.upf.edu/node/140
N: beyati--turku--3334--kirmizi_gul--erzurum
N: makam= beyati
N: form= turku
N: usul= 3334 = 13/4
M: 13/4
L: 1/16
K: C _2/4B   
Q: 1/4=48
%%MIDI tuningsystem comma53
z2cd d4 dc{d}c2 dde2 cd{e}d2 dc.c2 d2e2 cd{e}d2 dc{d}c2 dde2 cd{e}d2 d4 d/c/B/A/Bc  | 
w:  Kır mı zı  gül  *  *  *  de met  *  de *  *  *  met   *  Kır mı zı  *  *  *  *  gül  *  *  *  de met  *  de *  *  *  met   SAZ  | 
d2Bc d4 dc2B dde2 c{d}Bc2 c{d}B2z dd2B cB2A B{c}A2z ABcB/A/ B{c}A3 A4 zABc  | 
w:  *  Sev dâ  de ğil  *  *  bir_ a *  lâ *  *  *  met   *  *  Ba lam  *  nen *  *  ni  *  *  yav *  rum  *  *  nen *  *  ni   SAZ  | 
d2Bc d4 dc2B dde2 c{d}Bc2 c{d}B2z dd2B cB2A B{c}A2z ABcB/A/ B{c}A3 A4 z/D/E/^3/4F/G/A/B/ | 
w:  *  Sev dâ  de ğil  *  *  bir_ a *  lâ *  *  *  met   *  *  Ba lam  *  nen *  *  ni  *  *  yav *  rum  *  *  nen *  *  ni   SAZ  | 
c/  | d2cd d4 dc{d}c2 d2e2 cd{e}d2 dc.c2 d2e2 cd{e}d2 dc{d}c2 dde2 cd{e}d2 d4 d/c/B/A/Bc  | 
w:   |  *  Git ti  gel mez  *  *  *  ol  mu han *  *  *  net   *  Git ti  gel *  *  *  *  mez  *  *  *  ol  mu *  han *  *  *  net   SAZ  | 
d2Bc d4 dc2B dde2 c{d}Bc2 c{d}B2z dd2B cB2A B{c}A2z ABcB/A/ B{c}A3 A4 zABc  | 
w:  *  Şol  re van da  *  *  ba lam  *  gal *  *  *  dı   *  *  Yav rum  *  gal *  *  dı  *  *  ba *  lam  *  *  nen *  *  ni   SAZ  | 
z2cd d4 dc{d}c2 dde2 cd{e}d2 dc.c2 d2e2 cd{e}d2 dc{d}c2 dde2 cd{e}d2 d4 d/c/B/A/Bc  | 
w:  Kır mı zı  gül  *  *  *  de met  *  de *  *  *  met   *  Kır mı zı  *  *  *  *  gül  *  *  *  de met  *  de *  *  *  met   SAZ  | 
d2Bc d4 dc2B dde2 c{d}Bc2 c{d}B2z dd2B cB2A B{c}A2z ABcB/A/ B{c}A3 A4 zABc  | 
w:  *  Sev dâ  de ğil  *  *  bir_ a *  lâ *  *  *  met   *  *  Ba lam  *  nen *  *  ni  *  *  yav *  rum  *  *  nen *  *  ni   SAZ  | 
d2Bc d4 dc2B dde2 c{d}Bc2 c{d}B2z dd2B cB2A B{c}A2z ABcB/A/ B{c}A3 A4 z/D/E/^3/4F/G/A/B/ | 
w:  *  Sev dâ  de ğil  *  *  bir_ a *  lâ *  *  *  met   *  *  Ba lam  *  nen *  *  ni  *  *  yav *  rum  *  *  nen *  *  ni   SAZ  | 
c/  | d2cd d4 dc{d}c2 d2e2 cd{e}d2 dc.c2 d2e2 cd{e}d2 dc{d}c2 dde2 cd{e}d2 d4 d/c/B/A/Bc  | 
w:   |  *  Git ti  gel mez  *  *  *  ol  mu han *  *  *  net   *  Git ti  gel *  *  *  *  mez  *  *  *  ol  mu *  han *  *  *  net   SAZ  | 
d2Bc d4 dc2B dde2 c{d}Bc2 c{d}B2z dd2B cB2A B{c}A2z ABcB/A/ B{c}A3 A4 |
w:  *  Şol  re van da  *  *  ba lam  *  gal *  *  *  dı   *  *  Yav rum  *  gal *  *  dı  *  *  ba *  lam  *  *  nen *  *  ni    | 


